public/avatar/shoe/97.svg

<svg xmlns:xlink="http://www.w3.org/1999/xlink" height="38.3" width="36.05" xmlns="http://www.w3.org/2000/svg"><use height="19.35" transform="translate(7.15 11.3)" width="24.85" xlink:href="#a"/><defs><g id="a" fill-rule="evenodd"><path d="m2.35 11.85.05.1q.15.4.45.4 1.95.5 4.15-.9 1-.65 1.05-1.3Q8.5 7.1 7.6 1.3q-.55-3.7-5.5-4.7-5.8-1.05-9.2 4.8Q-9 4.6-9.75 5.2l-5.2.25q-1.05.2-1.45 1.1l-.25 1.25q0 1.75 1.25 4.25l.15.15Q-9 18.3.35 14.1q1-.65 2-2.25" fill="#351e02" transform="translate(16.65 3.55)"/><path d="M-3.5-.65q-1.6 1-2.85 2.85-1.05 3.9-1.5 3.9l-6.3.45q-2.35.4-.2 4.3 5.85 5.1 14.4 1.5 1-.7 1.85-2.25l.65-1.45.3 1.8q1.3.25 2.65-.3 1.15-.5 1.3-1.05.35-1.8.2-4.3l-.2-1.4v-.2l-.2-1.25q-.45-3-5-3.6-2.45-.3-4.35.6h-.15l-.6.4" fill="#f9c00d" transform="translate(16.65 3.55)"/><path d="M-.2 4.6q-1-1.4-3.45-2.55Q-6.25.8-7.7 1.4q-1.75.45-2.7 2.05-.45.65-.45 1.35l.15.6q.1.5.75.5 2.55-.45 5.2 3 1.35 1.4 4.05-.8 1.8-1.65.5-3.5" fill="#351e02" transform="translate(16.65 3.55)"/><path d="M-9.4 4.55q2.8-.35 5.5 3.3 3.45-.9 2.05-2.8-.65-.95-2.5-1.95-1.9-1.05-2.8-.7-1.7.3-2.25 2.15" fill="#b27247" transform="translate(16.65 3.55)"/><path d="m-9.4 4.55 1.55.35 1.7.9q1.45 1 2.25 2.25.5.05 1.5-.5-1-2.2-3.3-3.15l-2.4-.85q-1.3-.6-1.3 1" fill="#6d4224" transform="translate(16.65 3.55)"/><path d="M-13.9 7.45h-.1q1.75 1.9 3.65 1.95 2.7.15 3.75-1.2l-2.9.2-2.35-.25-2.05-.7M3.65 6.3 5.5 4.45q-.4.5-1.65 1L2.1 5.8l-.25.05Q2 6.9 3.65 6.3" fill="#fff" transform="translate(16.65 3.55)"/><path d="m1.55 8.2-.7 1.4-2.75 1.7q-2.35.9-6.2.5l-3.4-.6q-1.7-.5-3.2-1.35.05.7.75 1.35l1.8 1.35 2.55 1 3.5.3 3.15-.45q2.8-.75 3.55-1.45l1.25-1.6.55-1.55.45 1.65q2.5.65 4-.85.4-.45.05-4.15-1.1 1.4-1.75 1.6L2.6 7.7q-.85.15-1.05.5" fill="#cf7a00" transform="translate(16.65 3.55)"/></g></defs></svg>

<?xml version="1.0" encoding="UTF-8" standalone="no"?>
<svg xmlns:xlink="http://www.w3.org/1999/xlink" height="38.3px" width="36.05px" xmlns="http://www.w3.org/2000/svg">
  <g transform="matrix(1.0, 0.0, 0.0, 1.0, 23.8, 14.85)">
    <use height="19.35" transform="matrix(1.0, 0.0, 0.0, 1.0, -16.65, -3.55)" width="24.85" xlink:href="#shape0"/>
  </g>
  <defs>
    <g id="shape0" transform="matrix(1.0, 0.0, 0.0, 1.0, 16.65, 3.55)">
      <path d="M2.35 11.85 L2.4 11.95 Q2.55 12.35 2.85 12.35 4.8 12.85 7.0 11.45 8.0 10.8 8.05 10.15 8.5 7.1 7.6 1.3 7.05 -2.4 2.1 -3.4 -3.7 -4.45 -7.1 1.4 -9.0 4.6 -9.75 5.2 L-14.95 5.45 Q-16.0 5.65 -16.4 6.55 L-16.65 7.8 Q-16.65 9.55 -15.4 12.05 L-15.25 12.2 Q-9.0 18.3 0.35 14.1 1.35 13.45 2.35 11.85" fill="#351e02" fill-rule="evenodd" stroke="none"/>
      <path d="M-3.5 -0.65 Q-5.1 0.35 -6.35 2.2 -7.4 6.1 -7.85 6.1 L-14.15 6.55 Q-16.5 6.95 -14.35 10.85 -8.5 15.95 0.05 12.35 1.05 11.65 1.9 10.1 L2.55 8.65 2.85 10.45 Q4.15 10.7 5.5 10.15 6.65 9.65 6.8 9.1 7.15 7.3 7.0 4.8 L6.8 3.4 6.8 3.2 6.6 1.95 Q6.15 -1.05 1.6 -1.65 -0.85 -1.95 -2.75 -1.05 L-2.9 -1.05 -3.5 -0.65" fill="#f9c00d" fill-rule="evenodd" stroke="none"/>
      <path d="M-0.2 4.6 Q-1.2 3.2 -3.65 2.05 -6.25 0.8 -7.7 1.4 -9.45 1.85 -10.4 3.45 -10.85 4.1 -10.85 4.8 L-10.7 5.4 Q-10.6 5.9 -9.95 5.9 -7.4 5.45 -4.75 8.9 -3.4 10.3 -0.7 8.1 1.1 6.45 -0.2 4.6" fill="#351e02" fill-rule="evenodd" stroke="none"/>
      <path d="M-9.4 4.55 Q-6.6 4.2 -3.9 7.85 -0.45 6.95 -1.85 5.05 -2.5 4.1 -4.35 3.1 -6.25 2.05 -7.15 2.4 -8.85 2.7 -9.4 4.55" fill="#b27247" fill-rule="evenodd" stroke="none"/>
      <path d="M-9.4 4.55 L-7.85 4.9 -6.15 5.8 Q-4.7 6.8 -3.9 8.05 -3.4 8.1 -2.4 7.55 -3.4 5.35 -5.7 4.4 L-8.1 3.55 Q-9.4 2.95 -9.4 4.55" fill="#6d4224" fill-rule="evenodd" stroke="none"/>
      <path d="M-13.9 7.45 L-14.0 7.45 Q-12.25 9.35 -10.35 9.4 -7.65 9.55 -6.6 8.2 L-9.5 8.4 -11.85 8.15 -13.9 7.45" fill="#ffffff" fill-rule="evenodd" stroke="none"/>
      <path d="M3.65 6.3 L5.5 4.45 Q5.1 4.95 3.85 5.45 L2.1 5.8 1.85 5.85 Q2.0 6.9 3.65 6.3" fill="#ffffff" fill-rule="evenodd" stroke="none"/>
      <path d="M1.55 8.2 L0.85 9.6 -1.9 11.3 Q-4.25 12.2 -8.1 11.8 L-11.5 11.2 Q-13.2 10.7 -14.7 9.85 -14.65 10.55 -13.95 11.2 L-12.15 12.55 -9.6 13.55 -6.1 13.85 -2.95 13.4 Q-0.15 12.65 0.6 11.95 L1.85 10.35 2.4 8.8 2.85 10.45 Q5.35 11.1 6.85 9.6 7.25 9.15 6.9 5.45 5.8 6.85 5.15 7.05 L2.6 7.7 Q1.75 7.85 1.55 8.2" fill="#cf7a00" fill-rule="evenodd" stroke="none"/>
    </g>
  </defs>
</svg>
